packages/gestalt-icons-android/vr-theme/ic_vr_whats-app_gestalt.svg

<svg width="24" height="24" viewBox="0 0 24 24" fill="none" xmlns="http://www.w3.org/2000/svg">
<path fill-rule="evenodd" clip-rule="evenodd" d="M18.745 16.809C18.461 17.626 17.323 18.295 16.428 18.487C15.807 18.614 15.006 18.72 12.289 17.595C8.812 16.14 6.58 12.583 6.4 12.35C6.232 12.116 5 10.471 5 8.761C5 7.052 5.863 6.224 6.211 5.863C6.496 5.565 6.97 5.438 7.422 5.438C7.57 5.438 7.696 5.449 7.822 5.449C8.17 5.459 8.339 5.48 8.57 6.033C8.855 6.723 9.55 8.432 9.635 8.613C9.719 8.793 9.803 9.027 9.687 9.26C9.571 9.494 9.476 9.6 9.307 9.802C9.139 10.003 8.971 10.163 8.792 10.375C8.634 10.566 8.455 10.768 8.654 11.118C8.855 11.458 9.55 12.604 10.572 13.517C11.889 14.707 12.963 15.079 13.342 15.238C13.626 15.354 13.963 15.333 14.174 15.1C14.437 14.813 14.764 14.335 15.1 13.868C15.332 13.528 15.638 13.486 15.943 13.613C16.26 13.73 17.955 14.569 18.303 14.739C18.65 14.909 18.882 14.994 18.966 15.142C19.029 15.312 19.029 16.002 18.745 16.809ZM12 0C5.373 0 0 5.373 0 12C0 14.432 0.728 16.69 1.971 18.58L0 24L5.5 22.115L5.414 22.026C7.306 23.271 9.566 24 12 24C18.627 24 24 18.628 24 12C24 5.373 18.627 0 12 0Z" fill="black"/>
</svg>

<svg xmlns="http://www.w3.org/2000/svg" width="24" height="24"><path d="M18.75 16.8c-.29.83-1.43 1.5-2.32 1.69-.62.12-1.42.23-4.14-.9-3.48-1.45-5.71-5-5.89-5.24-.17-.23-1.4-1.88-1.4-3.59 0-1.7.86-2.54 1.21-2.9.29-.3.76-.42 1.21-.42h.4c.35.02.52.04.75.6.29.68.98 2.4 1.07 2.57.08.18.16.42.05.65s-.21.34-.38.54-.34.36-.52.58c-.16.19-.33.39-.14.74.2.34.9 1.48 1.92 2.4 1.32 1.19 2.4 1.56 2.77 1.72.29.11.62.1.83-.14.27-.29.6-.76.93-1.23.23-.34.54-.38.84-.26.32.12 2.02.96 2.36 1.13.35.17.58.25.67.4.06.17.06.86-.22 1.67M12 0A12 12 0 0 0 1.97 18.58L0 24l5.5-1.88-.09-.1A12 12 0 1 0 12 0"/></svg>
